X: 36
T: BONNIE ANNIE
%R: hornpipe
B: Jean White "100 Popular Hornpipes, Reels, Jigs and Country Dances", Boston 1880 p.16
F: http://www.loc.gov/resource/sm1880.09124.0#seq-1
Z: 2014 John Chambers <jc:trillian.mit.edu>
M: C|
L: 1/8
K: G
% - - - - - - - - - - - - - - - - - - - - - - - - - - - - -
|:\
G>AB>c d>BA>G | g>fg>e d2B>c |\
B>dB>G c>ec>A | B>dB>G G>FE>D |
G>AB>c d>BA>G | g>fg>e d2B>c |\
B>dB>G c>ec>A | G2 (3FGA G4 :|
|:\
d>ef>g f>af>d | g>bg>e f>af>d |\
d>ef>g a>fe>d | B>dB>G F>AF>D |
B>dB>G c>ec>A | c>af>d g>bg>e |\
d>gf>e d>cB>A | G2 (3FGA G4 H:|
% - - - - - - - - - - - - - - - - - - - - - - - - - - - - -

%%sep 1 1 500
%%sep 1 1 500
